src/assets/images/landing/flatSvgs/bridge_2d.svg

<svg width="152" height="114" viewBox="0 0 152 114" fill="none" xmlns="http://www.w3.org/2000/svg">
<g filter="url(#filter0_d_1598_1744)">
<path d="M54.332 3.84525L55.2887 3.24731L97.1835 74.9793" stroke="#FF01FB" stroke-width="4" stroke-miterlimit="10"/>
<path d="M54.332 31.3196L96.0175 102.691L97.1835 101.959" stroke="#FF01FB" stroke-width="4" stroke-miterlimit="10"/>
<path d="M54.3324 3V103C41.5139 103 29.2203 97.7322 20.1562 88.3553C11.0922 78.9785 6 66.2608 6 53C6 39.7392 11.0922 27.0215 20.1562 17.6447C29.2203 8.26784 41.5139 3 54.3324 3V3Z" stroke="white" stroke-width="4" stroke-miterlimit="10"/>
<path d="M97.1836 3V103C110.002 103 122.296 97.7322 131.36 88.3553C140.424 78.9785 145.516 66.2608 145.516 53C145.516 39.7392 140.424 27.0215 131.36 17.6447C122.296 8.26784 110.002 3 97.1836 3V3Z" stroke="#85E25E" stroke-width="4" stroke-miterlimit="10"/>
</g>
<defs>
<filter id="filter0_d_1598_1744" x="0" y="0.458984" width="151.516" height="113.024" filterUnits="userSpaceOnUse" color-interpolation-filters="sRGB">
<feFlood flood-opacity="0" result="BackgroundImageFix"/>
<feColorMatrix in="SourceAlpha" type="matrix" values="0 0 0 0 0 0 0 0 0 0 0 0 0 0 0 0 0 0 127 0" result="hardAlpha"/>
<feOffset dy="4"/>
<feGaussianBlur stdDeviation="2"/>
<feComposite in2="hardAlpha" operator="out"/>
<feColorMatrix type="matrix" values="0 0 0 0 0 0 0 0 0 0 0 0 0 0 0 0 0 0 0.25 0"/>
<feBlend mode="normal" in2="BackgroundImageFix" result="effect1_dropShadow_1598_1744"/>
<feBlend mode="normal" in="SourceGraphic" in2="effect1_dropShadow_1598_1744" result="shape"/>
</filter>
</defs>
</svg>

<svg xmlns="http://www.w3.org/2000/svg" width="152" height="114" fill="none"><g stroke-miterlimit="10" stroke-width="4" filter="url(#a)"><path stroke="#FF01FB" d="m54.332 3.845.957-.598L97.183 74.98M54.332 31.32l41.686 71.371 1.165-.732"/><path stroke="#fff" d="M54.332 3v100c-12.818 0-25.112-5.268-34.176-14.645S6 66.261 6 53s5.092-25.978 14.156-35.355S41.514 3 54.332 3Z"/><path stroke="#85E25E" d="M97.184 3v100c12.818 0 25.112-5.268 34.176-14.645S145.516 66.261 145.516 53s-5.092-25.978-14.156-35.355S110.002 3 97.184 3Z"/></g><defs><filter id="a" width="151.516" height="113.024" x="0" y=".459" color-interpolation-filters="sRGB" filterUnits="userSpaceOnUse"><feFlood flood-opacity="0" result="BackgroundImageFix"/><feColorMatrix in="SourceAlpha" result="hardAlpha" values="0 0 0 0 0 0 0 0 0 0 0 0 0 0 0 0 0 0 127 0"/><feOffset dy="4"/><feGaussianBlur stdDeviation="2"/><feComposite in2="hardAlpha" operator="out"/><feColorMatrix values="0 0 0 0 0 0 0 0 0 0 0 0 0 0 0 0 0 0 0.25 0"/><feBlend in2="BackgroundImageFix" result="effect1_dropShadow_1598_1744"/><feBlend in="SourceGraphic" in2="effect1_dropShadow_1598_1744" result="shape"/></filter></defs></svg>
